icons/svg/seamark/gate.svg

<?xml version="1.0" encoding="UTF-8" standalone="no"?>
<svg
   xmlns:dc="http://purl.org/dc/elements/1.1/"
   xmlns:cc="http://creativecommons.org/ns#"
   xmlns:rdf="http://www.w3.org/1999/02/22-rdf-syntax-ns#"
   xmlns:svg="http://www.w3.org/2000/svg"
   xmlns="http://www.w3.org/2000/svg"
   xmlns:sodipodi="http://sodipodi.sourceforge.net/DTD/sodipodi-0.dtd"
   xmlns:inkscape="http://www.inkscape.org/namespaces/inkscape"
   width="580"
   height="580"
   id="svg2"
   version="1.1"
   inkscape:version="0.48.4 r9939"
   sodipodi:docname="lock_gate.svg">
  <defs
     id="defs13">
    <inkscape:path-effect
       effect="gears"
       id="path-effect3774"
       is_visible="true"
       teeth="6"
       phi="-1.2" />
    <inkscape:path-effect
       effect="bend_path"
       id="path-effect3772"
       is_visible="false"
       bendpath="m 95.790098,316.51174 c 144.429032,-206.42506 223.313032,-11.7428 339.548092,0"
       prop_scale="1.19"
       scale_y_rel="false"
       vertical="false"
       bendpath-nodetypes="cc" />
  </defs>
  <sodipodi:namedview
     pagecolor="#ffffff"
     bordercolor="#666666"
     borderopacity="1"
     objecttolerance="10"
     gridtolerance="10"
     guidetolerance="10"
     inkscape:pageopacity="0"
     inkscape:pageshadow="2"
     inkscape:window-width="1324"
     inkscape:window-height="739"
     id="namedview11"
     showgrid="false"
     inkscape:zoom="0.2877193"
     inkscape:cx="445.86971"
     inkscape:cy="229.30066"
     inkscape:window-x="42"
     inkscape:window-y="1024"
     inkscape:window-maximized="1"
     inkscape:current-layer="svg2"
     inkscape:snap-object-midpoints="true"
     inkscape:snap-page="true" />
  <metadata
     id="metadata2975">image/svg+xmlen<rdf:RDF>
  <cc:Work
     rdf:about="">
    <dc:format>image/svg+xml</dc:format>
    <dc:type
       rdf:resource="http://purl.org/dc/dcmitype/StillImage" />
    <dc:title></dc:title>
  </cc:Work>
</rdf:RDF>
</metadata>
  <path
     style="color:#000000;fill:#2c2c2c;fill-opacity:1;fill-rule:nonzero;stroke:none;stroke-width:48.88222885;marker:none;visibility:visible;display:inline;overflow:visible;enable-background:accumulate"
     d="m 94.585848,185.05834 0,46.78653 157.624432,79.57568 0,-46.60434 -157.624444,-79.75787 z m 0,62.81929 0,40.08192 157.624432,79.61212 0,-40.08192 -157.624444,-79.61212 z m 0,56.15112 0,42.96053 157.624432,79.72143 0,-43.06984 -157.624444,-79.61212 z"
     id="rect2993"
     inkscape:connector-curvature="0" />
  <path
     style="color:#000000;fill:#2c2c2c;fill-opacity:1;fill-rule:nonzero;stroke:none;stroke-width:48.88222885;marker:none;visibility:visible;display:inline;overflow:visible;enable-background:accumulate"
     d="m 485.41415,185.05834 0,46.78653 -157.62444,79.57568 0,-46.60434 157.62444,-79.75787 z m 0,62.81929 0,40.08192 -157.62444,79.61212 0,-40.08192 157.62444,-79.61212 z m 0,56.15112 0,42.96053 -157.62444,79.72143 0,-43.06984 157.62444,-79.61212 z"
     id="rect2993-6"
     inkscape:connector-curvature="0" />
</svg>

<svg width="580" height="580" viewBox="0 0 580 580" fill="none" xmlns="http://www.w3.org/2000/svg">
<path d="M94.5859 185.059V231.845L252.21 311.421V264.816L94.5859 185.059H94.5859ZM94.5859 247.878V287.96L252.21 367.572V327.49L94.5859 247.878H94.5859ZM94.5859 304.029V346.99L252.21 426.711V383.641L94.5859 304.029H94.5859Z" fill="#2C2C2C"/>
<path d="M485.414 185.059V231.845L327.79 311.421V264.816L485.414 185.059V185.059ZM485.414 247.878V287.96L327.79 367.572V327.49L485.414 247.878V247.878ZM485.414 304.029V346.99L327.79 426.711V383.641L485.414 304.029Z" fill="#2C2C2C"/>
</svg>
